apps/www/public/images/index/products/edge-functions-dark.svg

<svg width="330" height="430" viewBox="0 0 330 430" fill="none" xmlns="http://www.w3.org/2000/svg">
<g clip-path="url(#clip0_364_2916)">
<mask id="mask0_364_2916" style="mask-type:alpha" maskUnits="userSpaceOnUse" x="-72" y="194" width="501" height="307">
<rect x="-71.3203" y="194.31" width="500.22" height="306.136" fill="url(#paint0_linear_364_2916)"/>
</mask>
<g mask="url(#mask0_364_2916)">
<path opacity="0.6" d="M56.9363 615.864C55.0738 614.729 58.4661 605.079 66.7467 587.868C75.0273 570.656 87.9158 546.498 104.11 517.81C120.304 489.122 139.235 456.928 159.003 424.468C178.78 391.993 198.693 360.405 216.734 332.844C234.791 305.292 250.345 282.755 261.833 267.507C273.329 252.243 280.353 244.814 282.216 245.949M29.7378 596.282C22.0017 589.736 20.8579 575.662 26.4116 555.477C31.9809 535.301 44.0671 509.704 61.447 481.289C78.8269 452.875 100.91 422.633 125.455 393.617C150.009 364.585 176.155 337.795 201.271 315.927C226.402 294.067 249.614 277.891 268.59 269.051C287.566 260.21 301.634 259.003 309.379 265.533M3.20404 569.554C-7.94814 556.166 -11.2031 536.622 -6.26453 512.873C-1.32593 489.124 11.667 462.003 31.3826 434.237C51.0983 406.471 76.8517 379.038 106.057 354.697C135.262 330.356 166.889 309.975 197.741 295.589C228.609 281.211 257.618 273.321 281.884 272.729C306.142 272.153 324.785 278.878 335.922 292.258M-22.4581 531.044C-33.3277 510.212 -35.1363 485.108 -27.6923 458.27C-20.2483 431.432 -3.81488 403.81 19.9338 378.162C43.698 352.523 73.9446 329.773 107.648 312.187C141.352 294.601 177.334 282.84 211.952 278.025C246.586 273.218 278.641 275.573 304.901 284.824C331.16 294.076 350.709 309.938 361.578 330.77M-42.7743 473.456C-48.2735 446.019 -43.8643 417.09 -29.9902 389.587C-16.1161 362.084 6.72911 336.968 36.2619 316.782C65.7947 296.596 100.962 282.031 138.234 274.554C175.506 267.078 213.569 266.972 248.601 274.224C283.633 281.475 314.391 295.839 337.788 315.865C361.186 335.891 376.404 360.902 381.903 388.34M-43.4928 392.108C-38.0184 362.028 -22.7933 334.282 0.658225 311.651C24.0942 289.012 54.9289 272.285 90.0679 263.137C125.198 254.005 163.382 252.771 200.78 259.593C238.187 266.4 273.487 281.016 303.128 301.955C332.768 322.894 355.742 349.414 369.689 378.867C383.636 408.32 388.11 439.648 382.636 469.728M-5.64197 303.625C21.9477 265.658 66.8567 242.639 119.227 239.655C171.598 236.671 227.12 253.963 273.586 287.711C320.051 321.459 353.668 368.929 367.02 419.638C380.363 470.363 372.376 520.189 344.802 558.164M61.3434 243.313C99.8723 221.089 148.231 219.525 195.775 238.995C243.318 258.464 286.152 297.33 314.846 347.093C343.549 396.841 355.768 453.387 348.805 504.288C341.842 555.189 316.291 596.274 277.762 618.498M127.004 218.562C165.252 210.897 206.413 225.91 241.443 260.321C276.473 294.732 302.483 345.68 313.776 401.996C325.069 458.311 320.687 515.368 301.627 560.606C282.567 605.843 250.368 635.575 212.121 643.24M179.177 214.558C210.013 215.932 238.58 240.045 258.588 281.58C278.595 323.114 288.389 378.698 285.858 436.073C283.303 493.455 268.618 547.933 245.003 587.539C221.388 627.146 190.807 648.635 159.97 647.26M219.804 220.258C239.872 225.037 253.815 251.833 258.582 294.715C263.349 337.596 258.544 393.08 245.211 448.956C231.886 504.817 211.127 556.509 187.519 592.634C163.912 628.758 139.377 646.369 119.318 641.574M253.079 231.088C261.369 234.556 260.504 258.926 250.701 298.845C240.898 338.764 222.957 390.967 200.809 443.955C178.661 496.943 154.135 546.401 132.598 581.426C111.086 616.443 94.3421 634.185 86.0524 630.716M95.4135 634.397C74.2746 626.692 53.7477 615.293 36.0327 601.422M174.386 647.421C141.03 648.174 101.973 637.33 66.0165 617.363C30.0595 597.396 0.23186 569.968 -16.7855 541.263M225.997 640.002C183.579 651.452 124.337 640.019 70.1613 609.935C15.9857 579.851 -25.0361 535.607 -37.7393 493.548M268.893 623.345C246.532 634.886 216.188 638.649 181.886 634.134C147.584 629.619 110.902 617.053 76.7424 598.084C42.5825 579.115 12.5162 554.636 -9.44045 527.89C-31.4057 501.159 -44.2526 473.412 -46.2763 448.33M305.246 599.71C283.394 617.27 249.804 625.088 209.925 621.895C170.045 618.701 126.223 604.684 85.5878 582.119C44.9523 559.554 9.88844 529.765 -13.904 497.602C-37.6965 465.438 -48.8162 432.791 -45.4619 404.96M335.338 570.267C315.677 593.665 280.44 605.799 236.392 604.344C192.336 602.905 142.533 587.979 96.5374 562.437C50.5417 536.895 11.5441 502.511 -12.9669 465.874C-37.4779 429.237 -45.805 392.912 -36.3459 363.869M358.903 536.045C348.313 555.115 329.168 568.969 303.39 576.261C277.596 583.545 246.094 583.99 212.019 577.533C177.944 571.077 142.515 557.97 109.27 539.509C76.0237 521.047 46.1694 497.902 22.6759 472.39C-0.817497 446.879 -17.1082 419.894 -24.5451 394.157C-31.9974 368.412 -30.3341 344.83 -19.7527 325.775M358.903 536.045C331.021 586.254 284.322 623.338 229.096 639.128C173.871 654.919 114.65 648.119 64.425 620.229C14.2154 592.347 -22.8689 545.648 -38.6676 490.438C-54.4577 435.213 -47.6584 375.992 -19.7682 325.766C8.11345 275.557 54.8132 238.473 110.023 222.674C165.248 206.884 224.469 213.683 274.694 241.573C324.904 269.455 361.988 316.155 377.787 371.365C393.577 426.59 386.785 485.835 358.903 536.045ZM375.496 497.951C368.268 520.165 350.965 537.089 325.575 546.786C300.193 556.467 267.772 558.53 232.028 552.707C196.275 546.9 158.648 533.444 123.481 513.916C88.299 494.379 57.002 469.561 33.1726 442.282C9.34323 415.003 -6.06825 386.398 -11.2523 359.744C-16.4518 333.081 -11.2172 309.455 3.81192 291.552M384.572 456.858C381.569 481.722 367.165 501.493 343.257 513.593C319.34 525.71 287.016 529.57 250.541 524.699C214.065 519.828 175.127 506.435 138.829 486.278C102.531 466.122 70.578 440.149 47.1615 411.761C23.7449 383.374 9.93395 353.895 7.57602 327.188C5.2181 300.481 14.3858 277.804 33.8954 262.125M385.427 413.49C387.595 440.355 377.226 462.751 355.893 477.295C334.561 491.84 303.425 497.758 267.164 494.142C230.904 490.526 191.51 477.588 154.918 457.269C118.326 436.949 86.5033 410.339 64.2811 381.48C42.0435 352.611 30.6077 323.053 31.6767 297.256C32.7458 271.459 46.2907 250.827 70.2261 238.458M376.89 368.272C385.366 396.37 380.478 421.16 363.072 438.27C345.666 455.38 316.869 463.692 281.774 461.737C246.695 459.79 207.59 447.682 171.401 427.586C135.211 407.49 104.277 380.704 84.0652 351.948C63.8689 323.2 55.7017 294.362 61.0241 270.542C66.3465 246.722 84.8146 229.451 113.138 221.809M355.905 320.54C372.617 348.772 375.559 375.924 364.065 396.074C352.572 416.224 327.586 427.747 294.573 428.103C261.551 428.474 223.168 417.659 187.815 398.027C152.462 378.396 122.991 351.531 105.85 323.304C88.7084 295.077 85.2729 267.792 96.3016 247.384C107.33 226.976 131.934 215.119 164.733 214.381M303.093 260.404C326.754 278.935 343.997 300.773 351.666 321.895C359.319 343.009 356.871 361.98 344.747 375.273C332.622 388.566 311.668 395.274 285.746 394.175C259.823 393.077 230.707 384.226 203.797 369.283C176.872 354.331 153.982 334.303 139.346 312.879C124.711 291.455 119.328 270.123 124.202 252.803C129.077 235.484 143.871 223.37 165.855 218.713C187.823 214.048 215.491 217.15 243.728 227.438M332.262 340.449C325.001 353.525 308.97 361.041 287.722 361.342C266.459 361.636 241.718 354.687 218.929 342.032C196.125 329.369 177.148 312.04 166.172 293.845C155.181 275.641 153.093 258.084 160.362 244.993C167.623 231.918 183.654 224.402 204.902 224.1C226.165 223.807 250.906 230.755 273.695 243.41C296.483 256.065 315.476 273.402 326.452 291.597C337.428 309.793 339.522 327.374 332.262 340.449ZM309.98 315.895C305.033 324.802 294.128 329.915 279.666 330.114C265.205 330.313 248.348 325.593 232.84 316.982C217.333 308.37 204.406 296.571 196.939 284.175C189.464 271.794 188.038 259.834 192.984 250.926C197.931 242.018 208.837 236.906 223.298 236.707C237.759 236.508 254.617 241.228 270.125 249.839C285.632 258.451 298.558 270.25 306.025 282.646C313.501 295.027 314.927 306.987 309.98 315.895ZM284.245 294.165C279.031 303.553 261.546 303.796 245.187 294.711C228.827 285.626 219.79 270.656 225.003 261.268C230.217 251.88 247.702 251.637 264.061 260.721C280.421 269.806 289.458 284.777 284.245 294.165Z" stroke="#7E7E7E" stroke-width="0.629955"/>
<path d="M96.084 155.412C129.821 166.727 155.729 193.229 169.369 214.373C49.879 214.63 -46.9313 311.472 -47.1378 430.975C-71.4455 421.419 -89.2903 407.817 -100.644 391.238C-112.052 374.579 -116.919 354.897 -115.188 333.25C-111.724 289.946 -81.8495 238.773 -25.0909 188.321C20.271 147.999 62.1569 144.034 96.084 155.412Z" fill="url(#paint1_radial_364_2916)" fill-opacity="0.08" stroke="url(#paint2_radial_364_2916)" stroke-width="0.522968"/>
</g>
<path d="M163.815 289.173C168.96 287.532 182.524 283.584 195.618 280.922" stroke="url(#paint3_linear_364_2916)" stroke-width="0.522968"/>
<path opacity="0.6" d="M163.743 289.032C145.537 294.219 120.666 304.679 101.45 315.562C98.5928 309.936 92.5914 296.549 91.4453 288.014" stroke="url(#paint4_linear_364_2916)" stroke-width="0.629955"/>
<path opacity="0.6" d="M131.988 300.584C109.209 309.463 67.2367 334.448 46.0713 353.25" stroke="url(#paint5_linear_364_2916)" stroke-width="0.629955"/>
<path d="M163.45 288.852C160.552 283.745 155.015 270.79 156.05 259.82C157.085 248.849 161.432 243.106 162.726 241.501C143.941 238.551 103.163 236.947 70.9746 248.642" stroke="url(#paint6_linear_364_2916)" stroke-width="0.629955"/>
<path d="M107 416.714C113.591 406.473 136.106 381.182 146.594 369.603C136.483 361.56 125 348.684 120.428 343.179C136.916 330.022 164.082 313.53 175.604 306.929C172.568 303.3 166.025 294.617 163.637 289.305" stroke="url(#paint7_linear_364_2916)" stroke-width="0.629955"/>
<path d="M208.664 423.039C215.773 410.086 229.419 369.035 235.78 350.283C207.668 338.623 187.65 321.055 175.596 306.866" stroke="url(#paint8_linear_364_2916)" stroke-width="0.629955"/>
<path d="M285.525 394.502C259.949 393.085 234.914 384.28 225.594 380.056C228.046 373.322 233.523 357.947 235.811 350.32" stroke="url(#paint9_linear_364_2916)" stroke-width="0.629955"/>
<line x1="163.741" y1="225.905" x2="163.741" y2="288.695" stroke="url(#paint10_linear_364_2916)" stroke-width="0.581638"/>
<ellipse cx="163.449" cy="288.951" rx="3.00038" ry="2.98705" transform="rotate(-90 163.449 288.951)" fill="#EDEDED"/>
<ellipse cx="285.522" cy="394.501" rx="3.00038" ry="2.98705" transform="rotate(-90 285.522 394.501)" fill="#EDEDED"/>
<ellipse cx="46.072" cy="353.25" rx="3.00038" ry="2.98705" transform="rotate(-90 46.072 353.25)" fill="#EDEDED"/>
</g>
<defs>
<linearGradient id="paint0_linear_364_2916" x1="130.011" y1="159.677" x2="290.2" y2="369.686" gradientUnits="userSpaceOnUse">
<stop stop-color="white"/>
<stop offset="1" stop-color="white" stop-opacity="0"/>
</linearGradient>
<radialGradient id="paint1_radial_364_2916" cx="0" cy="0" r="1" gradientUnits="userSpaceOnUse" gradientTransform="translate(63.4043 306.574) rotate(-132.571) scale(103.192 103.372)">
<stop stop-color="white"/>
<stop offset="1" stop-color="#D9D9D9" stop-opacity="0"/>
</radialGradient>
<radialGradient id="paint2_radial_364_2916" cx="0" cy="0" r="1" gradientUnits="userSpaceOnUse" gradientTransform="translate(35.3475 279.408) rotate(-113.962) scale(61.4062 126.439)">
<stop stop-color="#D9D9D9"/>
<stop offset="1" stop-color="#D9D9D9" stop-opacity="0"/>
</radialGradient>
<linearGradient id="paint3_linear_364_2916" x1="161.952" y1="287.31" x2="200.942" y2="282.386" gradientUnits="userSpaceOnUse">
<stop stop-color="white"/>
<stop offset="1" stop-color="white" stop-opacity="0"/>
</linearGradient>
<linearGradient id="paint4_linear_364_2916" x1="176.291" y1="291.992" x2="146.084" y2="317.019" gradientUnits="userSpaceOnUse">
<stop stop-color="#EDEDED"/>
<stop offset="1" stop-color="white" stop-opacity="0"/>
</linearGradient>
<linearGradient id="paint5_linear_364_2916" x1="142.094" y1="298.08" x2="49.0046" y2="374.208" gradientUnits="userSpaceOnUse">
<stop stop-color="#EDEDED"/>
<stop offset="1" stop-color="white" stop-opacity="0"/>
</linearGradient>
<linearGradient id="paint6_linear_364_2916" x1="163.45" y1="286.878" x2="151.98" y2="260.371" gradientUnits="userSpaceOnUse">
<stop stop-color="#EDEDED"/>
<stop offset="1" stop-color="white" stop-opacity="0"/>
</linearGradient>
<linearGradient id="paint7_linear_364_2916" x1="163.939" y1="317.43" x2="120.03" y2="406.478" gradientUnits="userSpaceOnUse">
<stop stop-color="#EDEDED"/>
<stop offset="1" stop-color="white" stop-opacity="0"/>
</linearGradient>
<linearGradient id="paint8_linear_364_2916" x1="211.598" y1="358.54" x2="210.244" y2="423.039" gradientUnits="userSpaceOnUse">
<stop stop-color="#EDEDED"/>
<stop offset="1" stop-color="white" stop-opacity="0"/>
</linearGradient>
<linearGradient id="paint9_linear_364_2916" x1="252.624" y1="386.02" x2="289.44" y2="398.696" gradientUnits="userSpaceOnUse">
<stop stop-color="#EDEDED"/>
<stop offset="1" stop-color="white" stop-opacity="0"/>
</linearGradient>
<linearGradient id="paint10_linear_364_2916" x1="163.45" y1="266.262" x2="163.45" y2="288.695" gradientUnits="userSpaceOnUse">
<stop stop-color="#EDEDED"/>
<stop offset="1" stop-color="white" stop-opacity="0"/>
</linearGradient>
<clipPath id="clip0_364_2916">
<rect width="330" height="430" fill="white"/>
</clipPath>
</defs>
</svg>

<svg xmlns="http://www.w3.org/2000/svg" width="330" height="430" fill="none" viewBox="0 0 330 430"><g clip-path="url(#a)"><mask id="c" width="501" height="307" x="-72" y="194" maskUnits="userSpaceOnUse" style="mask-type:alpha"><path fill="url(#b)" d="M-71.32 194.31H428.9v306.136H-71.32z"/></mask><g mask="url(#c)"><path stroke="#7e7e7e" stroke-width=".63" d="M56.936 615.864c-1.862-1.135 1.53-10.785 9.81-27.996 8.281-17.212 21.17-41.37 37.364-70.058s35.125-60.882 54.893-93.342c19.777-32.475 39.69-64.063 57.731-91.624 18.057-27.552 33.611-50.089 45.099-65.337 11.496-15.264 18.52-22.693 20.383-21.558M29.738 596.282c-7.736-6.546-8.88-20.62-3.326-40.805 5.569-20.176 17.655-45.773 35.035-74.188s39.463-58.656 64.008-87.672c24.554-29.032 50.7-55.822 75.816-77.69 25.131-21.86 48.343-38.036 67.319-46.876 18.976-8.841 33.044-10.048 40.789-3.518M3.204 569.554c-11.152-13.388-14.407-32.932-9.469-56.681 4.94-23.749 17.932-50.87 37.648-78.636 19.715-27.766 45.469-55.199 74.674-79.54s60.832-44.722 91.684-59.108c30.868-14.378 59.877-22.268 84.143-22.86 24.258-.576 42.901 6.149 54.038 19.529m-358.38 238.786c-10.87-20.832-12.678-45.936-5.234-72.774s23.877-54.46 47.626-80.108c23.764-25.639 54.01-48.389 87.714-65.975s69.686-29.347 104.304-34.162c34.634-4.807 66.689-2.452 92.949 6.799 26.259 9.252 45.808 25.114 56.677 45.946M-42.774 473.456c-5.5-27.437-1.09-56.366 12.784-83.869s36.72-52.619 66.252-72.805c29.533-20.186 64.7-34.751 101.972-42.228 37.272-7.476 75.335-7.582 110.367-.33s65.79 21.615 89.187 41.641c23.398 20.026 38.616 45.037 44.115 72.475m-425.396 3.768c5.475-30.08 20.7-57.826 44.151-80.457 23.436-22.639 54.27-39.366 89.41-48.514 35.13-9.132 73.314-10.366 110.712-3.544 37.407 6.807 72.707 21.423 102.348 42.362 29.64 20.939 52.614 47.459 66.561 76.912s18.421 60.781 12.947 90.861M-5.642 303.625c27.59-37.967 72.499-60.986 124.869-63.97s107.893 14.308 154.359 48.056c46.465 33.748 80.082 81.218 93.434 131.927 13.343 50.725 5.356 100.551-22.218 138.526M61.343 243.313c38.53-22.224 86.888-23.788 134.432-4.318s90.377 58.335 119.071 108.098c28.703 49.748 40.922 106.294 33.959 157.195s-32.514 91.986-71.043 114.21M127.004 218.562c38.248-7.665 79.409 7.348 114.439 41.759s61.04 85.359 72.333 141.675c11.293 56.315 6.911 113.372-12.149 158.61-19.06 45.237-51.259 74.969-89.506 82.634m-32.944-428.682c30.836 1.374 59.403 25.487 79.411 67.022 20.007 41.534 29.801 97.118 27.27 154.493-2.555 57.382-17.24 111.86-40.855 151.466s-54.196 61.096-85.033 59.721m59.834-427.002c20.068 4.779 34.011 31.575 38.778 74.457s-.038 98.365-13.371 154.241c-13.325 55.861-34.084 107.553-57.692 143.678s-48.142 53.735-68.201 48.94m133.761-410.486c8.29 3.468 7.425 27.838-2.378 67.757s-27.744 92.122-49.892 145.11-46.674 102.446-68.211 137.471c-21.512 35.017-38.256 52.759-46.546 49.29m9.361 3.681c-21.138-7.705-41.665-19.104-59.38-32.975m138.353 45.999c-33.356.753-72.413-10.091-108.37-30.058s-65.784-47.395-82.801-76.1m242.782 98.739c-42.418 11.45-101.66.017-155.836-30.067-54.175-30.084-95.197-74.328-107.9-116.387m306.632 129.797c-22.361 11.541-52.705 15.304-87.007 10.789s-70.984-17.081-105.144-36.05S12.516 554.636-9.44 527.89c-21.966-26.731-34.813-54.478-36.836-79.56m351.522 151.38c-21.852 17.56-55.442 25.378-95.321 22.185-39.88-3.194-83.702-17.211-124.337-39.776s-75.7-52.354-99.492-84.517c-23.792-32.164-34.912-64.811-31.558-92.642m380.8 165.307c-19.661 23.398-54.898 35.532-98.946 34.077-44.056-1.439-93.859-16.365-139.855-41.907s-84.993-59.926-109.504-96.563c-24.51-36.637-32.838-72.962-23.379-102.005m395.249 172.176c-10.59 19.07-29.735 32.924-55.513 40.216-25.794 7.284-57.296 7.729-91.371 1.272s-69.504-19.563-102.749-38.024c-33.246-18.462-63.1-41.607-86.594-67.119-23.493-25.511-39.784-52.496-47.221-78.233-7.452-25.745-5.79-49.327 4.792-68.382m378.656 210.27a216.6 216.6 0 0 1-129.807 103.083 216.54 216.54 0 0 1-164.671-18.899A216.65 216.65 0 0 1-38.668 490.438a216.54 216.54 0 0 1 18.9-164.672 216.65 216.65 0 0 1 129.791-103.092 216.54 216.54 0 0 1 164.671 18.899 216.65 216.65 0 0 1 103.093 129.792 216.6 216.6 0 0 1-18.884 164.68Zm16.593-38.094c-7.228 22.214-24.531 39.138-49.921 48.835-25.382 9.681-57.803 11.744-93.547 5.921-35.753-5.807-73.38-19.263-108.547-38.791-35.182-19.537-66.479-44.355-90.308-71.634s-39.241-55.884-44.425-82.538c-5.2-26.663.035-50.289 15.064-68.192m380.76 165.306c-3.003 24.864-17.407 44.635-41.315 56.735-23.917 12.117-56.241 15.977-92.716 11.106-36.476-4.871-75.414-18.264-111.712-38.421-36.298-20.156-68.251-46.129-91.668-74.517-23.416-28.387-37.227-57.866-39.585-84.573s6.81-49.384 26.32-65.063M385.426 413.49c2.168 26.865-8.201 49.261-29.534 63.805-21.332 14.545-52.468 20.463-88.729 16.847s-75.654-16.554-112.246-36.873c-36.592-20.32-68.415-46.93-90.637-75.789-22.238-28.869-33.673-58.427-32.604-84.224s14.614-46.429 38.55-58.798M376.89 368.272c8.476 28.098 3.588 52.888-13.818 69.998s-46.203 25.422-81.298 23.467c-35.079-1.947-74.184-14.055-110.373-34.151s-67.124-46.882-87.336-75.638c-20.196-28.748-28.363-57.586-23.04-81.406 5.322-23.82 23.79-41.091 52.113-48.733m242.767 98.731c16.712 28.232 19.654 55.384 8.16 75.534s-36.479 31.673-69.492 32.029c-33.022.371-71.405-10.444-106.758-30.076s-64.824-46.496-81.965-74.723-20.577-55.512-9.548-75.92c11.028-20.408 35.632-32.265 68.431-33.003m138.36 46.023c23.661 18.531 40.904 40.369 48.573 61.491 7.653 21.114 5.205 40.085-6.919 53.378-12.125 13.293-33.079 20.001-59.001 18.902-25.923-1.098-55.039-9.949-81.949-24.892-26.925-14.952-49.815-34.98-64.451-56.404s-20.018-42.756-15.144-60.076c4.875-17.319 19.669-29.433 41.653-34.09 21.968-4.665 49.636-1.563 77.873 8.725m88.534 113.011c-7.261 13.076-23.292 20.592-44.54 20.893-21.263.294-46.004-6.655-68.793-19.31-22.804-12.663-41.781-29.992-52.757-48.187-10.991-18.204-13.079-35.761-5.81-48.852 7.261-13.075 23.292-20.591 44.54-20.893 21.263-.293 46.004 6.655 68.793 19.31 22.788 12.655 41.781 29.992 52.757 48.187 10.976 18.196 13.07 35.777 5.81 48.852Zm-22.282-24.554c-4.947 8.907-15.852 14.02-30.314 14.219s-31.318-4.521-46.826-13.132-28.434-20.411-35.901-32.807c-7.475-12.381-8.901-24.341-3.955-33.249 4.947-8.908 15.853-14.02 30.314-14.219s31.319 4.521 46.827 13.132 28.433 20.411 35.9 32.807c7.476 12.381 8.902 24.341 3.955 33.249Zm-25.735-21.73c-5.214 9.388-22.699 9.631-39.058.546-16.36-9.085-25.397-24.055-20.184-33.443 5.214-9.388 22.699-9.631 39.058-.547 16.36 9.085 25.397 24.056 20.184 33.444Z" opacity=".6"/><path fill="url(#d)" fill-opacity=".08" stroke="url(#e)" stroke-width=".523" d="M96.084 155.412c33.737 11.315 59.645 37.817 73.285 58.961-119.49.257-216.3 97.099-216.507 216.602-24.307-9.556-42.152-23.158-53.506-39.737-11.408-16.659-16.275-36.341-14.544-57.988 3.464-43.304 33.338-94.477 90.097-144.929 45.362-40.322 87.248-44.287 121.175-32.909Z"/></g><path stroke="url(#f)" stroke-width=".523" d="M163.815 289.173c5.145-1.641 18.709-5.589 31.803-8.251"/><path stroke="url(#g)" stroke-width=".63" d="M163.743 289.032c-18.206 5.187-43.077 15.647-62.293 26.53-2.857-5.626-8.859-19.013-10.005-27.548" opacity=".6"/><path stroke="url(#h)" stroke-width=".63" d="M131.988 300.584c-22.779 8.879-64.751 33.864-85.917 52.666" opacity=".6"/><path stroke="url(#i)" stroke-width=".63" d="M163.45 288.852c-2.898-5.107-8.435-18.062-7.4-29.032 1.035-10.971 5.382-16.714 6.676-18.319-18.785-2.95-59.563-4.554-91.751 7.141"/><path stroke="url(#j)" stroke-width=".63" d="M107 416.714c6.591-10.241 29.106-35.532 39.594-47.111-10.111-8.043-21.594-20.919-26.166-26.424 16.488-13.157 43.654-29.649 55.176-36.25-3.036-3.629-9.579-12.312-11.967-17.624"/><path stroke="url(#k)" stroke-width=".63" d="M208.664 423.039c7.109-12.953 20.755-54.004 27.116-72.756-28.112-11.66-48.13-29.228-60.184-43.417"/><path stroke="url(#l)" stroke-width=".63" d="M285.525 394.502c-25.576-1.417-50.611-10.222-59.931-14.446 2.452-6.734 7.929-22.109 10.217-29.736"/><path stroke="url(#m)" stroke-width=".582" d="M163.741 225.905v62.79"/><ellipse cx="163.449" cy="288.951" fill="#ededed" rx="3" ry="2.987" transform="rotate(-90 163.449 288.951)"/><ellipse cx="285.522" cy="394.501" fill="#ededed" rx="3" ry="2.987" transform="rotate(-90 285.522 394.501)"/><ellipse cx="46.072" cy="353.25" fill="#ededed" rx="3" ry="2.987" transform="rotate(-90 46.072 353.25)"/></g><defs><linearGradient id="b" x1="130.011" x2="290.2" y1="159.677" y2="369.686" gradientUnits="userSpaceOnUse"><stop stop-color="#fff"/><stop offset="1" stop-color="#fff" stop-opacity="0"/></linearGradient><linearGradient id="f" x1="161.952" x2="200.942" y1="287.31" y2="282.386" gradientUnits="userSpaceOnUse"><stop stop-color="#fff"/><stop offset="1" stop-color="#fff" stop-opacity="0"/></linearGradient><linearGradient id="g" x1="176.291" x2="146.084" y1="291.992" y2="317.019" gradientUnits="userSpaceOnUse"><stop stop-color="#ededed"/><stop offset="1" stop-color="#fff" stop-opacity="0"/></linearGradient><linearGradient id="h" x1="142.094" x2="49.005" y1="298.08" y2="374.208" gradientUnits="userSpaceOnUse"><stop stop-color="#ededed"/><stop offset="1" stop-color="#fff" stop-opacity="0"/></linearGradient><linearGradient id="i" x1="163.45" x2="151.98" y1="286.878" y2="260.371" gradientUnits="userSpaceOnUse"><stop stop-color="#ededed"/><stop offset="1" stop-color="#fff" stop-opacity="0"/></linearGradient><linearGradient id="j" x1="163.939" x2="120.03" y1="317.43" y2="406.478" gradientUnits="userSpaceOnUse"><stop stop-color="#ededed"/><stop offset="1" stop-color="#fff" stop-opacity="0"/></linearGradient><linearGradient id="k" x1="211.598" x2="210.244" y1="358.54" y2="423.039" gradientUnits="userSpaceOnUse"><stop stop-color="#ededed"/><stop offset="1" stop-color="#fff" stop-opacity="0"/></linearGradient><linearGradient id="l" x1="252.624" x2="289.44" y1="386.02" y2="398.696" gradientUnits="userSpaceOnUse"><stop stop-color="#ededed"/><stop offset="1" stop-color="#fff" stop-opacity="0"/></linearGradient><linearGradient id="m" x1="163.45" x2="163.45" y1="266.262" y2="288.695" gradientUnits="userSpaceOnUse"><stop stop-color="#ededed"/><stop offset="1" stop-color="#fff" stop-opacity="0"/></linearGradient><radialGradient id="d" cx="0" cy="0" r="1" gradientTransform="rotate(227.429 99.037 139.361)scale(103.192 103.372)" gradientUnits="userSpaceOnUse"><stop stop-color="#fff"/><stop offset="1" stop-color="#d9d9d9" stop-opacity="0"/></radialGradient><radialGradient id="e" cx="0" cy="0" r="1" gradientTransform="rotate(246.038 108.464 128.218)scale(61.4062 126.439)" gradientUnits="userSpaceOnUse"><stop stop-color="#d9d9d9"/><stop offset="1" stop-color="#d9d9d9" stop-opacity="0"/></radialGradient><clipPath id="a"><path fill="#fff" d="M0 0h330v430H0z"/></clipPath></defs></svg>
